astro/static/img/planets/07-saturn.svg

<?xml version="1.0" encoding="UTF-8" standalone="no"?>
<!-- Created with Inkscape (http://www.inkscape.org/) -->
<svg xmlns:dc="http://purl.org/dc/elements/1.1/" xmlns:cc="http://web.resource.org/cc/" xmlns:rdf="http://www.w3.org/1999/02/22-rdf-syntax-ns#" xmlns:svg="http://www.w3.org/2000/svg" xmlns="http://www.w3.org/2000/svg" xmlns:sodipodi="http://sodipodi.sourceforge.net/DTD/sodipodi-0.dtd" xmlns:inkscape="http://www.inkscape.org/namespaces/inkscape" width="50" height="50" viewBox="0 0 50 50" id="svg34864" sodipodi:version="0.32" inkscape:version="0.44" version="1.0" sodipodi:docbase="C:\Documents and Settings\Owner\Desktop\SVG work\Symbols" sodipodi:docname="Saturn symbol.svg">
  <defs id="defs34866"/>
  <sodipodi:namedview id="base" pagecolor="#ffffff" bordercolor="#666666" borderopacity="1.0" gridtolerance="10000" guidetolerance="10" objecttolerance="10" inkscape:pageopacity="0.0" inkscape:pageshadow="2" inkscape:zoom="5.6" inkscape:cx="40.112546" inkscape:cy="23.612944" inkscape:document-units="px" inkscape:current-layer="layer1" inkscape:window-width="853" inkscape:window-height="573" inkscape:window-x="226" inkscape:window-y="149"/>
  <metadata id="metadata34869">
    <rdf:RDF>
      <cc:Work rdf:about="">
        <dc:format>image/svg+xml</dc:format>
        <dc:type rdf:resource="http://purl.org/dc/dcmitype/StillImage"/>
      </cc:Work>
    </rdf:RDF>
  </metadata>
  <g inkscape:label="Layer 1" inkscape:groupmode="layer" id="layer1" transform="translate(-348.7552,-478.0905)">
    <path style="fill:none;fill-opacity:0.75;fill-rule:evenodd;stroke:black;stroke-width:3;stroke-linecap:butt;stroke-linejoin:miter;stroke-miterlimit:4;stroke-dasharray:none;stroke-opacity:1" d="M 368.54632,484.01327 L 368.54632,513.01327" id="path6570"/>
    <path style="opacity:1;color:black;fill:none;fill-opacity:0.75;fill-rule:evenodd;stroke:black;stroke-width:3;stroke-linecap:butt;stroke-linejoin:miter;marker:none;marker-start:none;marker-mid:none;marker-end:none;stroke-miterlimit:4;stroke-dasharray:none;stroke-dashoffset:0;stroke-opacity:1;visibility:visible;display:inline;overflow:visible" d="M 363.65347,488.76327 L 375.65347,488.76327" id="path6572"/>
    <path style="fill:none;fill-opacity:0.75;fill-rule:evenodd;stroke:black;stroke-width:3;stroke-linecap:butt;stroke-linejoin:miter;stroke-miterlimit:4;stroke-dasharray:none;stroke-opacity:1" d="M 382.54632,519.01327 C 381.54632,520.01327 380.54632,521.01327 379.54632,521.01327 C 378.54632,521.01327 376.54632,520.01327 376.54632,518.01327 C 376.54632,516.01327 377.54632,514.01327 379.54632,512.01327 C 381.54632,510.01327 383.54632,506.01327 383.54632,502.01327 C 383.54632,498.01327 381.54632,494.01327 377.54632,494.01327 C 373.76313,494.01327 370.54632,496.01327 368.54632,500.01327" id="path6574" sodipodi:nodetypes="czzzzsz"/>
  </g>
</svg>

<?xml version="1.0" encoding="UTF-8" standalone="no"?>
<svg xmlns:rdf="http://www.w3.org/1999/02/22-rdf-syntax-ns#" xmlns="http://www.w3.org/2000/svg" version="1.0" xmlns:cc="http://creativecommons.org/ns#" xmlns:dc="http://purl.org/dc/elements/1.1/" viewBox="0 0 100 100">
	<g transform="translate(-348.7552,-428.0905)">
		<g stroke-linejoin="miter" transform="matrix(2.5,0,0,2.5,-535.24454,-778.19267)" stroke="#000" stroke-linecap="butt" stroke-dasharray="none" stroke-miterlimit="4" stroke-width="3" fill="none">
			<path d="m368.55,484.01,0,29"/>
			<path style="color:#000000;" d="m363.65,488.76,12,0" stroke-dashoffset="0"/>
			<path d="m382.55,519.01c-1,1-2,2-3,2s-3-1-3-3,1-4,3-6,4-6,4-10-2-8-6-8c-3.7832,0-7,2-9,6"/>
		</g>
	</g>
</svg>
